X: 3295
T: HE'S O'ER THE HILLS
%R: jig
B: James Kerr "Merry Melodies" v.3 p.32 #295
Z: 2016 John Chambers <jc:trillian.mit.edu>
M: 6/8
L: 1/8
K: D
ud |\
ABd ud2ud | fed B2d | ABd daf | fed d2A |\
ABd d2d | fed B2b | (a2b) afd | fed d2 :|
|: f |\
(a2b) afd | fed B2b | (a2b) afd | fed d2f |\
(a2b) afd | fed B2d | ABd daf | fed d2 :|

%%sep 1 1 500
%%sep 1 1 500

